remix/Document/book-fill.svg

<svg viewBox="0 0 24 24" fill="currentColor" xmlns="http://www.w3.org/2000/svg"><path d="M20 22H6.5C4.567 22 3 20.433 3 18.5V5C3 3.34315 4.34315 2 6 2H20C20.5523 2 21 2.44772 21 3V21C21 21.5523 20.5523 22 20 22ZM19 20V17H6.5C5.67157 17 5 17.6716 5 18.5C5 19.3284 5.67157 20 6.5 20H19Z"/></svg>

<svg viewBox="0 0 24 24" xmlns="http://www.w3.org/2000/svg"><path fill="none" d="M0 0h24v24H0Z"/><path d="M20 22H6.5v0C4.56 22 3 20.43 3 18.5V5v0c0-1.66 1.34-3 3-3h14v0c.55 0 1 .44 1 1v18 0c0 .55-.45 1-1 1Zm-1-2v-3H6.5v0c-.83 0-1.5.67-1.5 1.5 0 .82.67 1.5 1.5 1.5H19Z"/></svg>
